X:669
T:
N:Angläs.
S:Efter klockaren Ol. Laugren, Alva, m. fl. % rättelse i originalet
R:kadrilj
O:Gotland, Alva
M:2/4
L:1/16
K:F
c2|fcac c'2c2|ecgc b2c2|fcac c'2a2|c'bge f4::ded^c d2A2|B2A2G2F2|gag^f
gabg|ecde f4:|

